X:2938
L:1/8
M:6/8
K:G
 B/c/ | d2 d dBd | e2 c c2 e | dec BcA | G2 G GBc | d2 d dBd | e2 c c2 e | dec BcA | (G3 G2) :| | 
 d | g2 g gfg | a2 d d2 f/g/ | a2 a aga | b2 g g2 b | abg fge | d2 d d2 B/c/ | d2 d dBd | 
 e2 c c2 e | dfc BcA | G2 G GBd | d2 d dBd | e2 c c2 e | dec BcA | (G3 G2) ||

